X:4
T:The Dining Table
C:Matthew Szostak 2002
N:For Nina
R:Schottische
Q:1/4=160
Z:Dave Holland <dave@biff.org.uk>
M:C
L:1/4
K:C
.cgzg|f/g/ f/e/ d e/d/|cc/d/ ec|d (3_B/d/B/ AG|\
.cgzg|f/g/ f/e/ d e/d/|cd/e/ d/c/_B|c d//c//_B/ c2:|
.ge.c_B-|Bc/d/ ed/e/|f>g ag/a/|_b/a/ g/f/ ag|\
.ge.c_B-|Bc/d/ ed/e/|f/e/ d/c/ e/d/ c/_B/|c d//c//_B/ c2:|
<end>
<start>
